X: 9738
T: Deja Vu All Over Again
R: reel
M: 4/4
K: Dminor
|:D2 DE FEFD|E2 G2 G4|D2 DE FEFD|EDCB, A,4|
D2 DE FEFD|E2 G2 G4|ABAF GFDC|D8:|
|:dcAG FEFD|E2 G2 G4|dcAG FEFD|EDCB, A,4|
dcAG FEFD|E2 G2 G4|ABAF GFDC|D8:|

